assets/1. 1-F/Eight-pointed star/Color/Eight-pointed.Star-color.svg

<svg width="100%" height="100%" viewBox="0 0 32 32" fill="none" xmlns="http://www.w3.org/2000/svg">
<g filter="url(#filter0_iii_18590_2105)">
<rect x="2.51086" y="1.6875" width="27.875" height="27.875" rx="3.6" fill="url(#paint0_linear_18590_2105)"/>
<rect x="2.51086" y="1.6875" width="27.875" height="27.875" rx="3.6" fill="url(#paint1_radial_18590_2105)"/>
</g>
<g filter="url(#filter1_f_18590_2105)">
<path d="M28.6984 4.1875V27.0625" stroke="url(#paint2_linear_18590_2105)" stroke-width="1.5" stroke-linecap="round"/>
</g>
<g filter="url(#filter2_f_18590_2105)">
<path d="M5.97473 3.5H27.756" stroke="url(#paint3_linear_18590_2105)" stroke-width="1.5" stroke-linecap="round"/>
</g>
<g filter="url(#filter3_f_18590_2105)">
<path d="M16.2019 6.62558C16.2637 6.3709 16.6259 6.3709 16.6878 6.62558L17.8948 11.5969C17.9348 11.7614 18.1232 11.8395 18.2678 11.7514L22.6366 9.08967C22.8604 8.9533 23.1165 9.20942 22.9802 9.43324L20.3184 13.802C20.2303 13.9466 20.3084 14.1351 20.4729 14.175L25.4442 15.3821C25.6989 15.4439 25.6989 15.8061 25.4442 15.8679L20.4729 17.075C20.3084 17.1149 20.2303 17.3034 20.3184 17.448L22.9802 21.8168C23.1165 22.0406 22.8604 22.2967 22.6366 22.1603L18.2678 19.4986C18.1232 19.4105 17.9348 19.4886 17.8948 19.6531L16.6878 24.6244C16.6259 24.8791 16.2637 24.8791 16.2019 24.6244L14.9948 19.6531C14.9549 19.4886 14.7664 19.4105 14.6218 19.4986L10.2531 22.1603C10.0292 22.2967 9.77313 22.0406 9.90949 21.8168L12.5712 17.448C12.6593 17.3034 12.5813 17.1149 12.4167 17.075L7.44541 15.8679C7.19072 15.8061 7.19072 15.4439 7.44541 15.3821L12.4167 14.175C12.5813 14.1351 12.6593 13.9466 12.5712 13.802L9.90949 9.43324C9.77313 9.20942 10.0292 8.9533 10.2531 9.08967L14.6218 11.7514C14.7664 11.8395 14.9549 11.7614 14.9948 11.5969L16.2019 6.62558Z" fill="#FF8A53"/>
</g>
<g filter="url(#filter4_ii_18590_2105)">
<path d="M16.2019 6.62558C16.2637 6.3709 16.6259 6.3709 16.6878 6.62558L17.8948 11.5969C17.9348 11.7614 18.1232 11.8395 18.2678 11.7514L22.6366 9.08967C22.8604 8.9533 23.1165 9.20942 22.9802 9.43324L20.3184 13.802C20.2303 13.9466 20.3084 14.1351 20.4729 14.175L25.4442 15.3821C25.6989 15.4439 25.6989 15.8061 25.4442 15.8679L20.4729 17.075C20.3084 17.1149 20.2303 17.3034 20.3184 17.448L22.9802 21.8168C23.1165 22.0406 22.8604 22.2967 22.6366 22.1603L18.2678 19.4986C18.1232 19.4105 17.9348 19.4886 17.8948 19.6531L16.6878 24.6244C16.6259 24.8791 16.2637 24.8791 16.2019 24.6244L14.9948 19.6531C14.9549 19.4886 14.7664 19.4105 14.6218 19.4986L10.2531 22.1603C10.0292 22.2967 9.77313 22.0406 9.90949 21.8168L12.5712 17.448C12.6593 17.3034 12.5813 17.1149 12.4167 17.075L7.44541 15.8679C7.19072 15.8061 7.19072 15.4439 7.44541 15.3821L12.4167 14.175C12.5813 14.1351 12.6593 13.9466 12.5712 13.802L9.90949 9.43324C9.77313 9.20942 10.0292 8.9533 10.2531 9.08967L14.6218 11.7514C14.7664 11.8395 14.9549 11.7614 14.9948 11.5969L16.2019 6.62558Z" fill="#FCF2FF"/>
</g>
<defs>
<filter id="filter0_iii_18590_2105" x="2.01086" y="0.6875" width="29.375" height="29.375" filterUnits="userSpaceOnUse" color-interpolation-filters="sRGB">
<feFlood flood-opacity="0" result="BackgroundImageFix"/>
<feBlend mode="normal" in="SourceGraphic" in2="BackgroundImageFix" result="shape"/>
<feColorMatrix in="SourceAlpha" type="matrix" values="0 0 0 0 0 0 0 0 0 0 0 0 0 0 0 0 0 0 127 0" result="hardAlpha"/>
<feOffset dx="1" dy="-1"/>
<feGaussianBlur stdDeviation="1.5"/>
<feComposite in2="hardAlpha" operator="arithmetic" k2="-1" k3="1"/>
<feColorMatrix type="matrix" values="0 0 0 0 0.992157 0 0 0 0 0.384314 0 0 0 0 0.164706 0 0 0 1 0"/>
<feBlend mode="normal" in2="shape" result="effect1_innerShadow_18590_2105"/>
<feColorMatrix in="SourceAlpha" type="matrix" values="0 0 0 0 0 0 0 0 0 0 0 0 0 0 0 0 0 0 127 0" result="hardAlpha"/>
<feOffset dy="-1"/>
<feGaussianBlur stdDeviation="1.5"/>
<feComposite in2="hardAlpha" operator="arithmetic" k2="-1" k3="1"/>
<feColorMatrix type="matrix" values="0 0 0 0 1 0 0 0 0 0.32549 0 0 0 0 0.168627 0 0 0 1 0"/>
<feBlend mode="normal" in2="effect1_innerShadow_18590_2105" result="effect2_innerShadow_18590_2105"/>
<feColorMatrix in="SourceAlpha" type="matrix" values="0 0 0 0 0 0 0 0 0 0 0 0 0 0 0 0 0 0 127 0" result="hardAlpha"/>
<feOffset dx="-0.5" dy="0.5"/>
<feGaussianBlur stdDeviation="0.5"/>
<feComposite in2="hardAlpha" operator="arithmetic" k2="-1" k3="1"/>
<feColorMatrix type="matrix" values="0 0 0 0 1 0 0 0 0 0.741176 0 0 0 0 0.25098 0 0 0 1 0"/>
<feBlend mode="normal" in2="effect2_innerShadow_18590_2105" result="effect3_innerShadow_18590_2105"/>
</filter>
<filter id="filter1_f_18590_2105" x="25.9484" y="1.4375" width="5.5" height="28.375" filterUnits="userSpaceOnUse" color-interpolation-filters="sRGB">
<feFlood flood-opacity="0" result="BackgroundImageFix"/>
<feBlend mode="normal" in="SourceGraphic" in2="BackgroundImageFix" result="shape"/>
<feGaussianBlur stdDeviation="1" result="effect1_foregroundBlur_18590_2105"/>
</filter>
<filter id="filter2_f_18590_2105" x="3.22473" y="0.75" width="27.2812" height="5.5" filterUnits="userSpaceOnUse" color-interpolation-filters="sRGB">
<feFlood flood-opacity="0" result="BackgroundImageFix"/>
<feBlend mode="normal" in="SourceGraphic" in2="BackgroundImageFix" result="shape"/>
<feGaussianBlur stdDeviation="1" result="effect1_foregroundBlur_18590_2105"/>
</filter>
<filter id="filter3_f_18590_2105" x="6.25439" y="5.43457" width="20.3809" height="20.3809" filterUnits="userSpaceOnUse" color-interpolation-filters="sRGB">
<feFlood flood-opacity="0" result="BackgroundImageFix"/>
<feBlend mode="normal" in="SourceGraphic" in2="BackgroundImageFix" result="shape"/>
<feGaussianBlur stdDeviation="0.5" result="effect1_foregroundBlur_18590_2105"/>
</filter>
<filter id="filter4_ii_18590_2105" x="6.85439" y="6.03457" width="19.1809" height="19.1809" filterUnits="userSpaceOnUse" color-interpolation-filters="sRGB">
<feFlood flood-opacity="0" result="BackgroundImageFix"/>
<feBlend mode="normal" in="SourceGraphic" in2="BackgroundImageFix" result="shape"/>
<feColorMatrix in="SourceAlpha" type="matrix" values="0 0 0 0 0 0 0 0 0 0 0 0 0 0 0 0 0 0 127 0" result="hardAlpha"/>
<feOffset dx="-0.4" dy="0.4"/>
<feGaussianBlur stdDeviation="0.375"/>
<feComposite in2="hardAlpha" operator="arithmetic" k2="-1" k3="1"/>
<feColorMatrix type="matrix" values="0 0 0 0 0.913725 0 0 0 0 0.886275 0 0 0 0 0.968627 0 0 0 1 0"/>
<feBlend mode="normal" in2="shape" result="effect1_innerShadow_18590_2105"/>
<feColorMatrix in="SourceAlpha" type="matrix" values="0 0 0 0 0 0 0 0 0 0 0 0 0 0 0 0 0 0 127 0" result="hardAlpha"/>
<feOffset dx="0.4" dy="-0.4"/>
<feGaussianBlur stdDeviation="0.2"/>
<feComposite in2="hardAlpha" operator="arithmetic" k2="-1" k3="1"/>
<feColorMatrix type="matrix" values="0 0 0 0 1 0 0 0 0 0.988235 0 0 0 0 1 0 0 0 1 0"/>
<feBlend mode="normal" in2="effect1_innerShadow_18590_2105" result="effect2_innerShadow_18590_2105"/>
</filter>
<linearGradient id="paint0_linear_18590_2105" x1="16.4484" y1="5.26201" x2="16.4484" y2="38.5147" gradientUnits="userSpaceOnUse">
<stop stop-color="#FFA851"/>
<stop offset="1" stop-color="#FF7E50"/>
</linearGradient>
<radialGradient id="paint1_radial_18590_2105" cx="0" cy="0" r="1" gradientUnits="userSpaceOnUse" gradientTransform="translate(28.1671 3.78125) rotate(136.771) scale(2.14444 2.50466)">
<stop stop-color="#FFD774"/>
<stop offset="1" stop-color="#FF77B1" stop-opacity="0"/>
<stop offset="1" stop-color="#FFD774" stop-opacity="0"/>
</radialGradient>
<linearGradient id="paint2_linear_18590_2105" x1="29.1984" y1="4.1875" x2="29.1984" y2="27.0625" gradientUnits="userSpaceOnUse">
<stop stop-color="#FFCE69"/>
<stop offset="1" stop-color="#FF9C61"/>
</linearGradient>
<linearGradient id="paint3_linear_18590_2105" x1="28.9122" y1="3.75002" x2="3.38098" y2="3.75002" gradientUnits="userSpaceOnUse">
<stop stop-color="#FFC85B"/>
<stop offset="1" stop-color="#FFB156"/>
</linearGradient>
</defs>
</svg>

<svg width="100%" height="100%" viewBox="0 0 32 32" xmlns="http://www.w3.org/2000/svg"><g filter="url(#a)"><rect width="27.875" height="27.875" x="2.511" y="1.688" fill="url(#b)" rx="3.6"/><rect width="27.875" height="27.875" x="2.511" y="1.688" fill="url(#c)" rx="3.6"/></g><g filter="url(#d)"><path stroke="url(#e)" stroke-linecap="round" stroke-width="1.5" d="M28.698 4.188v22.875"/></g><g filter="url(#f)"><path stroke="url(#g)" stroke-linecap="round" stroke-width="1.5" d="M5.975 3.5h21.781"/></g><g filter="url(#h)"><path fill="#FF8A53" d="M16.202 6.626c.062-.255.424-.255.486 0l1.207 4.97a.25.25 0 0 0 .373.155l4.369-2.661c.223-.137.48.12.343.343l-2.662 4.369a.25.25 0 0 0 .155.373l4.971 1.207c.255.062.255.424 0 .486l-4.971 1.207a.25.25 0 0 0-.155.373l2.662 4.369c.136.224-.12.48-.343.343l-4.37-2.661a.25.25 0 0 0-.372.154l-1.207 4.971c-.062.255-.424.255-.486 0l-1.207-4.97a.25.25 0 0 0-.373-.155l-4.369 2.661c-.224.137-.48-.12-.344-.343l2.662-4.369a.25.25 0 0 0-.154-.373l-4.972-1.207c-.254-.062-.254-.424 0-.486l4.972-1.207a.25.25 0 0 0 .154-.373L9.91 9.433c-.136-.224.12-.48.344-.343l4.369 2.661a.25.25 0 0 0 .373-.154z"/></g><g filter="url(#i)"><path fill="#FCF2FF" d="M16.202 6.626c.062-.255.424-.255.486 0l1.207 4.97a.25.25 0 0 0 .373.155l4.369-2.661c.223-.137.48.12.343.343l-2.662 4.369a.25.25 0 0 0 .155.373l4.971 1.207c.255.062.255.424 0 .486l-4.971 1.207a.25.25 0 0 0-.155.373l2.662 4.369c.136.224-.12.48-.343.343l-4.37-2.661a.25.25 0 0 0-.372.154l-1.207 4.971c-.062.255-.424.255-.486 0l-1.207-4.97a.25.25 0 0 0-.373-.155l-4.369 2.661c-.224.137-.48-.12-.344-.343l2.662-4.369a.25.25 0 0 0-.154-.373l-4.972-1.207c-.254-.062-.254-.424 0-.486l4.972-1.207a.25.25 0 0 0 .154-.373L9.91 9.433c-.136-.224.12-.48.344-.343l4.369 2.661a.25.25 0 0 0 .373-.154z"/></g><defs><filter id="a" width="29.375" height="29.375" x="2.011" y=".688" color-interpolation-filters="sRGB" filterUnits="userSpaceOnUse"><feFlood flood-opacity="0" result="BackgroundImageFix"/><feBlend in="SourceGraphic" in2="BackgroundImageFix" result="shape"/><feColorMatrix in="SourceAlpha" result="hardAlpha" values="0 0 0 0 0 0 0 0 0 0 0 0 0 0 0 0 0 0 127 0"/><feOffset dx="1" dy="-1"/><feGaussianBlur stdDeviation="1.5"/><feComposite in2="hardAlpha" k2="-1" k3="1" operator="arithmetic"/><feColorMatrix values="0 0 0 0 0.992157 0 0 0 0 0.384314 0 0 0 0 0.164706 0 0 0 1 0"/><feBlend in2="shape" result="effect1_innerShadow_18590_2105"/><feColorMatrix in="SourceAlpha" result="hardAlpha" values="0 0 0 0 0 0 0 0 0 0 0 0 0 0 0 0 0 0 127 0"/><feOffset dy="-1"/><feGaussianBlur stdDeviation="1.5"/><feComposite in2="hardAlpha" k2="-1" k3="1" operator="arithmetic"/><feColorMatrix values="0 0 0 0 1 0 0 0 0 0.32549 0 0 0 0 0.168627 0 0 0 1 0"/><feBlend in2="effect1_innerShadow_18590_2105" result="effect2_innerShadow_18590_2105"/><feColorMatrix in="SourceAlpha" result="hardAlpha" values="0 0 0 0 0 0 0 0 0 0 0 0 0 0 0 0 0 0 127 0"/><feOffset dx="-.5" dy=".5"/><feGaussianBlur stdDeviation=".5"/><feComposite in2="hardAlpha" k2="-1" k3="1" operator="arithmetic"/><feColorMatrix values="0 0 0 0 1 0 0 0 0 0.741176 0 0 0 0 0.25098 0 0 0 1 0"/><feBlend in2="effect2_innerShadow_18590_2105" result="effect3_innerShadow_18590_2105"/></filter><filter id="d" width="5.5" height="28.375" x="25.948" y="1.438" color-interpolation-filters="sRGB" filterUnits="userSpaceOnUse"><feFlood flood-opacity="0" result="BackgroundImageFix"/><feBlend in="SourceGraphic" in2="BackgroundImageFix" result="shape"/><feGaussianBlur result="effect1_foregroundBlur_18590_2105" stdDeviation="1"/></filter><filter id="f" width="27.281" height="5.5" x="3.225" y=".75" color-interpolation-filters="sRGB" filterUnits="userSpaceOnUse"><feFlood flood-opacity="0" result="BackgroundImageFix"/><feBlend in="SourceGraphic" in2="BackgroundImageFix" result="shape"/><feGaussianBlur result="effect1_foregroundBlur_18590_2105" stdDeviation="1"/></filter><filter id="h" width="20.381" height="20.381" x="6.254" y="5.435" color-interpolation-filters="sRGB" filterUnits="userSpaceOnUse"><feFlood flood-opacity="0" result="BackgroundImageFix"/><feBlend in="SourceGraphic" in2="BackgroundImageFix" result="shape"/><feGaussianBlur result="effect1_foregroundBlur_18590_2105" stdDeviation=".5"/></filter><filter id="i" width="19.181" height="19.181" x="6.854" y="6.035" color-interpolation-filters="sRGB" filterUnits="userSpaceOnUse"><feFlood flood-opacity="0" result="BackgroundImageFix"/><feBlend in="SourceGraphic" in2="BackgroundImageFix" result="shape"/><feColorMatrix in="SourceAlpha" result="hardAlpha" values="0 0 0 0 0 0 0 0 0 0 0 0 0 0 0 0 0 0 127 0"/><feOffset dx="-.4" dy=".4"/><feGaussianBlur stdDeviation=".375"/><feComposite in2="hardAlpha" k2="-1" k3="1" operator="arithmetic"/><feColorMatrix values="0 0 0 0 0.913725 0 0 0 0 0.886275 0 0 0 0 0.968627 0 0 0 1 0"/><feBlend in2="shape" result="effect1_innerShadow_18590_2105"/><feColorMatrix in="SourceAlpha" result="hardAlpha" values="0 0 0 0 0 0 0 0 0 0 0 0 0 0 0 0 0 0 127 0"/><feOffset dx=".4" dy="-.4"/><feGaussianBlur stdDeviation=".2"/><feComposite in2="hardAlpha" k2="-1" k3="1" operator="arithmetic"/><feColorMatrix values="0 0 0 0 1 0 0 0 0 0.988235 0 0 0 0 1 0 0 0 1 0"/><feBlend in2="effect1_innerShadow_18590_2105" result="effect2_innerShadow_18590_2105"/></filter><linearGradient id="b" x1="16.448" x2="16.448" y1="5.262" y2="38.515" gradientUnits="userSpaceOnUse"><stop stop-color="#FFA851"/><stop offset="1" stop-color="#FF7E50"/></linearGradient><linearGradient id="e" x1="29.198" x2="29.198" y1="4.188" y2="27.063" gradientUnits="userSpaceOnUse"><stop stop-color="#FFCE69"/><stop offset="1" stop-color="#FF9C61"/></linearGradient><linearGradient id="g" x1="28.912" x2="3.381" y1="3.75" y2="3.75" gradientUnits="userSpaceOnUse"><stop stop-color="#FFC85B"/><stop offset="1" stop-color="#FFB156"/></linearGradient><radialGradient id="c" cx="0" cy="0" r="1" gradientTransform="matrix(-1.56249 1.46876 -1.71548 -1.82495 28.167 3.781)" gradientUnits="userSpaceOnUse"><stop stop-color="#FFD774"/><stop offset="1" stop-color="#FF77B1" stop-opacity="0"/><stop offset="1" stop-color="#FFD774" stop-opacity="0"/></radialGradient></defs></svg>
